src/gui/emoticons/gorilla.svg

<svg xmlns="http://www.w3.org/2000/svg" xmlns:xlink="http://www.w3.org/1999/xlink" width="16pt" height="16pt" version="1.1" viewBox="0 0 16 16"><defs><linearGradient id="linear0" x1="63.799" x2="63.799" y1="122.24" y2="5.237" gradientTransform="matrix(0.125,0,0,0.125,0,0)" gradientUnits="userSpaceOnUse"><stop offset="0" style="stop-color:#000;stop-opacity:1"/><stop offset=".216" style="stop-color:#0f0f0f;stop-opacity:1"/><stop offset=".633" style="stop-color:#373737;stop-opacity:1"/><stop offset=".837" style="stop-color:#4d4d4d;stop-opacity:1"/></linearGradient><linearGradient id="linear1" x1="63.807" x2="63.807" y1="43.351" y2="119.21" gradientTransform="matrix(0.125,0,0,0.125,0,0)" gradientUnits="userSpaceOnUse"><stop offset=".259" style="stop-color:#999;stop-opacity:1"/><stop offset=".409" style="stop-color:#949494;stop-opacity:1"/><stop offset=".587" style="stop-color:#868686;stop-opacity:1"/><stop offset=".778" style="stop-color:#6e6e6e;stop-opacity:1"/><stop offset=".967" style="stop-color:#4f4f4f;stop-opacity:1"/></linearGradient></defs><g id="surface1"><path style="stroke:none;fill-rule:nonzero;fill:#4d4d4d;fill-opacity:1" d="M 3.234375 8.300781 C 3.207031 8.300781 3.179688 8.300781 3.148438 8.296875 C 2.136719 8.113281 1.488281 7.320312 1.503906 6.277344 C 1.511719 5.644531 1.679688 4.890625 2.429688 4.890625 C 2.726562 4.890625 3.089844 5.003906 3.515625 5.222656 C 3.542969 5.234375 3.570312 5.242188 3.597656 5.242188 C 4.035156 5.25 4.183594 5.886719 4.179688 6.425781 C 4.167969 7.3125 3.78125 8.300781 3.234375 8.300781 Z M 3.234375 8.300781"/><path style="stroke:none;fill-rule:nonzero;fill:#333;fill-opacity:1" d="M 2.375 4.75 L 2.375 5.125 L 2.402344 5.125 C 2.667969 5.125 3.019531 5.207031 3.417969 5.410156 C 3.46875 5.4375 3.53125 5.4375 3.585938 5.441406 C 3.867188 5.445312 3.992188 5.953125 3.984375 6.429688 C 3.976562 7.28125 3.605469 8.117188 3.234375 8.117188 C 3.214844 8.117188 3.199219 8.113281 3.179688 8.109375 C 2.066406 7.910156 1.652344 7.035156 1.660156 6.28125 C 1.671875 5.484375 2 5.078125 2.375 5.078125 L 2.375 4.75 M 2.429688 4.703125 C 1.601562 4.703125 1.328125 5.453125 1.316406 6.273438 C 1.300781 7.335938 1.925781 8.265625 3.117188 8.480469 C 3.15625 8.484375 3.199219 8.488281 3.234375 8.488281 C 4.449219 8.488281 4.855469 5.082031 3.601562 5.054688 C 3.125 4.808594 2.738281 4.703125 2.429688 4.703125 Z M 2.429688 4.703125"/><path style="stroke:none;fill-rule:nonzero;fill:#4d4d4d;fill-opacity:1" d="M 12.765625 8.300781 C 12.21875 8.300781 11.832031 7.3125 11.820312 6.425781 C 11.816406 5.886719 11.964844 5.25 12.402344 5.242188 C 12.429688 5.242188 12.457031 5.234375 12.484375 5.222656 C 12.910156 5.003906 13.273438 4.890625 13.570312 4.890625 C 14.320312 4.890625 14.488281 5.644531 14.496094 6.277344 C 14.511719 7.320312 13.863281 8.113281 12.851562 8.296875 C 12.820312 8.300781 12.792969 8.300781 12.765625 8.300781 Z M 12.765625 8.300781"/><path style="stroke:none;fill-rule:nonzero;fill:#333;fill-opacity:1" d="M 13.570312 5.078125 C 14.050781 5.078125 14.296875 5.484375 14.308594 6.28125 C 14.320312 7.03125 13.933594 7.910156 12.816406 8.109375 C 12.796875 8.113281 12.78125 8.113281 12.765625 8.113281 C 12.390625 8.113281 12.019531 7.277344 12.011719 6.421875 C 12.003906 5.949219 12.125 5.433594 12.40625 5.425781 C 12.460938 5.425781 12.519531 5.414062 12.570312 5.386719 C 12.96875 5.183594 13.304688 5.078125 13.570312 5.078125 M 13.570312 4.703125 C 13.261719 4.703125 12.875 4.808594 12.398438 5.054688 C 11.144531 5.078125 11.550781 8.488281 12.765625 8.488281 C 12.800781 8.488281 12.84375 8.484375 12.882812 8.480469 C 14.074219 8.265625 14.699219 7.335938 14.683594 6.273438 C 14.671875 5.453125 14.398438 4.703125 13.570312 4.703125 Z M 13.570312 4.703125"/><path style="stroke:none;fill-rule:nonzero;fill:url(#linear0)" d="M 7.835938 15.28125 C 5.140625 15.28125 1.988281 13.824219 1.988281 9.714844 C 1.988281 8.8125 2.273438 8.078125 2.546875 7.371094 C 2.796875 6.734375 3.027344 6.136719 3.019531 5.484375 C 3 4.230469 3.476562 3.042969 4.359375 2.148438 C 5.292969 1.199219 6.613281 0.65625 7.976562 0.65625 C 9.328125 0.65625 10.605469 1.121094 11.5625 1.96875 C 12.570312 2.859375 13.125 4.109375 13.125 5.488281 C 13.125 6.125 13.308594 6.714844 13.503906 7.339844 C 13.726562 8.054688 13.960938 8.796875 13.960938 9.71875 C 13.960938 13.539062 10.785156 15.28125 7.835938 15.28125 Z M 7.835938 15.28125"/><path style="stroke:none;fill-rule:nonzero;fill:#1a1a1a;fill-opacity:1" d="M 7.976562 0.84375 C 9.285156 0.84375 10.515625 1.292969 11.4375 2.109375 C 12.121094 2.714844 12.9375 3.792969 12.9375 5.488281 C 12.9375 6.152344 13.125 6.757812 13.328125 7.394531 C 13.546875 8.09375 13.773438 8.820312 13.773438 9.714844 C 13.773438 11.421875 13.121094 12.835938 11.890625 13.796875 C 10.832031 14.617188 9.355469 15.089844 7.839844 15.089844 C 6.292969 15.089844 4.894531 14.632812 3.902344 13.804688 C 2.773438 12.863281 2.179688 11.449219 2.179688 9.714844 C 2.179688 8.847656 2.457031 8.128906 2.726562 7.4375 C 2.980469 6.785156 3.21875 6.167969 3.207031 5.480469 C 3.191406 4.277344 3.644531 3.140625 4.496094 2.277344 C 5.390625 1.367188 6.660156 0.84375 7.976562 0.84375 M 7.976562 0.46875 C 5.171875 0.46875 2.789062 2.632812 2.832031 5.488281 C 2.851562 6.800781 1.800781 7.953125 1.800781 9.714844 C 1.800781 13.71875 4.742188 15.46875 7.835938 15.46875 C 10.835938 15.46875 14.148438 13.71875 14.148438 9.714844 C 14.148438 7.945312 13.3125 6.804688 13.3125 5.488281 C 13.3125 2.425781 10.757812 0.46875 7.976562 0.46875 Z M 7.976562 0.46875"/><path style="stroke:none;fill-rule:nonzero;fill:url(#linear1)" d="M 12.480469 7.585938 C 12.480469 6.617188 11.796875 5.800781 10.886719 5.527344 C 10.429688 5.390625 9.9375 5.390625 9.484375 5.542969 C 8.96875 5.714844 8.542969 6.332031 7.964844 6.332031 C 7.148438 6.332031 6.550781 5.421875 5.722656 5.421875 C 4.476562 5.421875 3.472656 6.390625 3.472656 7.585938 C 3.472656 8.6875 4.328125 9.59375 5.429688 9.730469 C 4.703125 10.480469 4.46875 11.511719 4.46875 12.230469 C 4.46875 13.484375 5.855469 14.902344 8.046875 14.902344 C 10.242188 14.902344 11.464844 13.480469 11.464844 12.230469 C 11.464844 11.507812 11.300781 10.472656 10.589844 9.722656 C 11.660156 9.554688 12.480469 8.664062 12.480469 7.585938 Z M 12.480469 7.585938"/><path style="stroke:none;fill-rule:nonzero;fill:#000;fill-opacity:1" d="M 11.320312 13.429688 L 11.277344 13.34375 C 11.246094 13.292969 11.207031 13.199219 11.152344 13.113281 C 11.121094 13.070312 11.09375 13.019531 11.058594 12.964844 C 11.019531 12.914062 10.976562 12.855469 10.933594 12.796875 C 10.882812 12.738281 10.828125 12.679688 10.773438 12.617188 C 10.710938 12.558594 10.648438 12.496094 10.578125 12.433594 C 10.503906 12.378906 10.433594 12.3125 10.347656 12.261719 C 10.304688 12.234375 10.261719 12.207031 10.21875 12.175781 C 10.171875 12.152344 10.128906 12.128906 10.078125 12.101562 C 9.988281 12.046875 9.882812 12.007812 9.78125 11.960938 C 9.671875 11.925781 9.570312 11.878906 9.453125 11.847656 C 9.230469 11.773438 8.984375 11.730469 8.738281 11.695312 C 8.492188 11.660156 8.226562 11.652344 7.980469 11.648438 C 7.851562 11.652344 7.710938 11.648438 7.589844 11.660156 L 7.402344 11.671875 L 7.214844 11.695312 C 6.964844 11.730469 6.722656 11.773438 6.5 11.847656 C 6.382812 11.878906 6.277344 11.925781 6.171875 11.960938 C 6.070312 12.007812 5.964844 12.046875 5.871094 12.101562 C 5.824219 12.125 5.777344 12.152344 5.734375 12.175781 C 5.691406 12.207031 5.648438 12.234375 5.605469 12.261719 C 5.519531 12.3125 5.449219 12.378906 5.375 12.433594 C 5.304688 12.496094 5.242188 12.558594 5.179688 12.617188 C 5.125 12.679688 5.070312 12.738281 5.019531 12.796875 C 4.976562 12.855469 4.933594 12.914062 4.894531 12.964844 C 4.855469 13.019531 4.828125 13.074219 4.796875 13.117188 C 4.738281 13.210938 4.707031 13.292969 4.675781 13.34375 C 4.652344 13.394531 4.636719 13.421875 4.636719 13.421875 L 4.628906 13.4375 C 4.585938 13.519531 4.484375 13.554688 4.398438 13.511719 C 4.320312 13.472656 4.285156 13.375 4.320312 13.292969 C 4.320312 13.292969 4.332031 13.261719 4.359375 13.203125 C 4.386719 13.140625 4.417969 13.046875 4.480469 12.941406 C 4.511719 12.886719 4.542969 12.828125 4.578125 12.761719 C 4.621094 12.699219 4.667969 12.632812 4.714844 12.5625 C 4.765625 12.492188 4.828125 12.421875 4.890625 12.347656 C 4.957031 12.277344 5.027344 12.203125 5.105469 12.128906 C 5.191406 12.0625 5.269531 11.984375 5.367188 11.921875 C 5.414062 11.890625 5.460938 11.855469 5.511719 11.820312 C 5.5625 11.792969 5.613281 11.761719 5.664062 11.730469 C 5.769531 11.664062 5.886719 11.617188 6 11.558594 C 6.117188 11.515625 6.238281 11.460938 6.363281 11.425781 C 6.613281 11.34375 6.878906 11.289062 7.148438 11.25 C 7.21875 11.242188 7.285156 11.234375 7.355469 11.222656 L 7.5625 11.207031 C 7.707031 11.195312 7.832031 11.199219 7.96875 11.191406 C 8.253906 11.199219 8.523438 11.207031 8.796875 11.25 C 9.066406 11.289062 9.332031 11.34375 9.582031 11.425781 C 9.707031 11.460938 9.828125 11.515625 9.945312 11.558594 C 10.058594 11.617188 10.175781 11.664062 10.28125 11.730469 C 10.332031 11.761719 10.386719 11.792969 10.433594 11.820312 C 10.484375 11.855469 10.53125 11.890625 10.578125 11.921875 C 10.675781 11.984375 10.757812 12.0625 10.839844 12.128906 C 10.917969 12.203125 10.988281 12.277344 11.054688 12.347656 C 11.117188 12.421875 11.175781 12.492188 11.230469 12.5625 C 11.277344 12.632812 11.324219 12.699219 11.363281 12.761719 C 11.40625 12.828125 11.4375 12.890625 11.46875 12.945312 C 11.535156 13.058594 11.554688 13.140625 11.585938 13.199219 C 11.609375 13.257812 11.621094 13.289062 11.621094 13.289062 C 11.660156 13.375 11.617188 13.476562 11.53125 13.511719 C 11.453125 13.546875 11.359375 13.511719 11.320312 13.429688 Z M 11.320312 13.429688"/><path style="stroke:none;fill-rule:nonzero;fill:#000;fill-opacity:1" d="M 6.40625 7.433594 C 6.40625 7.03125 6.121094 6.707031 5.765625 6.707031 C 5.410156 6.707031 5.121094 7.03125 5.121094 7.433594 C 5.121094 7.835938 5.410156 8.160156 5.765625 8.160156 C 6.121094 8.160156 6.40625 7.835938 6.40625 7.433594 Z M 6.40625 7.433594"/><path style="stroke:none;fill-rule:nonzero;fill:#000;fill-opacity:1" d="M 10.828125 7.347656 C 10.828125 6.945312 10.539062 6.621094 10.183594 6.621094 C 9.832031 6.621094 9.542969 6.945312 9.542969 7.347656 C 9.542969 7.75 9.832031 8.078125 10.183594 8.078125 C 10.539062 8.078125 10.828125 7.75 10.828125 7.347656 Z M 10.828125 7.347656"/><path style="stroke:none;fill-rule:nonzero;fill:#666;fill-opacity:1" d="M 9.5 10.117188 C 9.5 10.117188 9.523438 10.101562 9.574219 10.066406 C 9.613281 10.039062 9.675781 9.992188 9.746094 9.925781 C 9.816406 9.859375 9.898438 9.777344 9.953125 9.675781 C 10.007812 9.570312 10.039062 9.457031 10.015625 9.324219 C 10.011719 9.292969 10 9.253906 9.992188 9.226562 C 9.984375 9.203125 9.976562 9.175781 9.96875 9.160156 C 9.960938 9.148438 9.953125 9.132812 9.949219 9.121094 C 9.914062 9.054688 9.867188 9 9.8125 8.957031 C 9.699219 8.867188 9.542969 8.835938 9.371094 8.875 C 9.328125 8.882812 9.289062 8.894531 9.242188 8.914062 C 9.1875 8.9375 9.132812 8.957031 9.078125 8.980469 L 8.992188 9.015625 L 8.960938 9.027344 L 8.917969 9.046875 C 8.863281 9.074219 8.808594 9.097656 8.75 9.121094 L 8.585938 9.195312 L 8.417969 9.273438 L 8.253906 9.351562 L 8.167969 9.390625 L 8.128906 9.410156 L 8.101562 9.425781 C 8.078125 9.433594 8.03125 9.453125 7.972656 9.453125 C 7.917969 9.453125 7.859375 9.429688 7.839844 9.421875 L 7.824219 9.410156 L 7.78125 9.390625 L 7.699219 9.351562 L 7.527344 9.269531 C 7.417969 9.21875 7.304688 9.167969 7.195312 9.117188 C 6.988281 9.03125 6.730469 8.910156 6.574219 8.871094 C 6.410156 8.835938 6.246094 8.863281 6.136719 8.953125 C 6.023438 9.042969 5.953125 9.179688 5.929688 9.328125 C 5.910156 9.445312 5.9375 9.574219 5.996094 9.671875 C 6.050781 9.777344 6.132812 9.859375 6.199219 9.925781 C 6.269531 9.988281 6.332031 10.035156 6.378906 10.066406 C 6.421875 10.097656 6.445312 10.113281 6.445312 10.113281 L 6.453125 10.117188 C 6.539062 10.175781 6.558594 10.292969 6.5 10.378906 C 6.445312 10.460938 6.335938 10.484375 6.253906 10.433594 C 6.253906 10.433594 6.226562 10.417969 6.171875 10.386719 C 6.117188 10.351562 6.035156 10.304688 5.941406 10.226562 C 5.847656 10.148438 5.734375 10.046875 5.632812 9.890625 C 5.535156 9.730469 5.453125 9.511719 5.492188 9.253906 C 5.519531 9.039062 5.621094 8.78125 5.84375 8.59375 C 5.953125 8.5 6.089844 8.433594 6.234375 8.402344 C 6.382812 8.367188 6.527344 8.371094 6.679688 8.402344 C 6.71875 8.410156 6.761719 8.421875 6.785156 8.425781 L 6.828125 8.441406 L 6.851562 8.449219 L 6.859375 8.453125 L 6.882812 8.460938 C 6.941406 8.484375 7 8.503906 7.054688 8.527344 C 7.167969 8.574219 7.28125 8.621094 7.398438 8.671875 C 7.511719 8.71875 7.625 8.769531 7.738281 8.820312 L 7.90625 8.898438 L 8.035156 8.957031 L 8.0625 8.96875 C 8.054688 8.964844 8.015625 8.949219 7.972656 8.949219 C 7.929688 8.949219 7.898438 8.964844 7.890625 8.964844 C 7.882812 8.96875 7.890625 8.96875 7.90625 8.957031 L 7.953125 8.9375 L 8.035156 8.898438 L 8.378906 8.742188 C 8.433594 8.71875 8.492188 8.695312 8.550781 8.667969 C 8.609375 8.644531 8.664062 8.621094 8.71875 8.597656 L 8.761719 8.578125 L 8.808594 8.558594 L 8.894531 8.527344 C 8.949219 8.503906 9.003906 8.484375 9.058594 8.460938 C 9.125 8.4375 9.195312 8.414062 9.265625 8.398438 C 9.550781 8.335938 9.882812 8.402344 10.097656 8.59375 C 10.207031 8.683594 10.292969 8.796875 10.347656 8.914062 C 10.359375 8.945312 10.375 8.976562 10.390625 9.007812 C 10.398438 9.039062 10.40625 9.054688 10.414062 9.082031 C 10.433594 9.148438 10.445312 9.199219 10.453125 9.261719 C 10.488281 9.503906 10.40625 9.734375 10.308594 9.890625 C 10.207031 10.046875 10.09375 10.148438 10 10.226562 C 9.90625 10.304688 9.824219 10.355469 9.769531 10.386719 C 9.71875 10.417969 9.691406 10.433594 9.691406 10.433594 C 9.601562 10.484375 9.488281 10.453125 9.4375 10.363281 C 9.390625 10.28125 9.417969 10.171875 9.5 10.117188 Z M 9.5 10.117188"/><path style="stroke:none;fill-rule:nonzero;fill:#000;fill-opacity:1" d="M 7.199219 10.125 L 6.570312 9.761719 C 6.4375 9.6875 6.390625 9.515625 6.464844 9.382812 L 6.472656 9.367188 C 6.550781 9.234375 6.722656 9.1875 6.855469 9.265625 L 7.484375 9.628906 C 7.617188 9.703125 7.664062 9.878906 7.585938 10.011719 L 7.578125 10.023438 C 7.503906 10.15625 7.332031 10.203125 7.199219 10.125 Z M 7.199219 10.125"/><path style="stroke:none;fill-rule:nonzero;fill:#000;fill-opacity:1" d="M 8.75 10.125 L 9.382812 9.761719 C 9.515625 9.6875 9.558594 9.515625 9.484375 9.382812 L 9.476562 9.367188 C 9.398438 9.234375 9.226562 9.1875 9.09375 9.265625 L 8.464844 9.628906 C 8.332031 9.703125 8.285156 9.878906 8.363281 10.011719 L 8.371094 10.023438 C 8.445312 10.15625 8.617188 10.203125 8.75 10.125 Z M 8.75 10.125"/></g></svg>

<svg xmlns="http://www.w3.org/2000/svg" width="16pt" height="16pt" viewBox="0 0 16 16"><defs><linearGradient id="a" x1="63.799" x2="63.799" y1="122.24" y2="5.237" gradientTransform="scale(.125)" gradientUnits="userSpaceOnUse"><stop offset="0" style="stop-color:#000;stop-opacity:1"/><stop offset=".216" style="stop-color:#0f0f0f;stop-opacity:1"/><stop offset=".633" style="stop-color:#373737;stop-opacity:1"/><stop offset=".837" style="stop-color:#4d4d4d;stop-opacity:1"/></linearGradient><linearGradient id="b" x1="63.807" x2="63.807" y1="43.351" y2="119.21" gradientTransform="scale(.125)" gradientUnits="userSpaceOnUse"><stop offset=".259" style="stop-color:#999;stop-opacity:1"/><stop offset=".409" style="stop-color:#949494;stop-opacity:1"/><stop offset=".587" style="stop-color:#868686;stop-opacity:1"/><stop offset=".778" style="stop-color:#6e6e6e;stop-opacity:1"/><stop offset=".967" style="stop-color:#4f4f4f;stop-opacity:1"/></linearGradient></defs><path d="M3.234 8.3q-.04 0-.086-.003c-1.011-.184-1.66-.977-1.644-2.02.008-.632.176-1.386.926-1.386q.446.002 1.086.332a.2.2 0 0 0 .082.02c.437.007.586.644.582 1.183-.012.886-.399 1.875-.946 1.875m0 0" style="stroke:none;fill-rule:nonzero;fill:#4d4d4d;fill-opacity:1"/><path d="M2.375 4.75v.375h.027c.266 0 .618.082 1.016.285.05.027.113.027.168.031.281.004.406.512.398.989-.007.851-.379 1.687-.75 1.687-.02 0-.035-.004-.054-.008-1.114-.199-1.528-1.074-1.52-1.828.012-.797.34-1.203.715-1.203zm.055-.047c-.828 0-1.102.75-1.114 1.57-.015 1.063.61 1.993 1.801 2.207.04.004.082.008.117.008 1.215 0 1.621-3.406.368-3.433-.477-.246-.864-.352-1.172-.352m0 0" style="stroke:none;fill-rule:nonzero;fill:#333;fill-opacity:1"/><path d="M12.766 8.3c-.547 0-.934-.988-.946-1.874-.004-.54.145-1.176.582-1.184a.2.2 0 0 0 .082-.02q.64-.329 1.086-.331c.75 0 .918.754.926 1.386.016 1.043-.633 1.836-1.644 2.02q-.047.005-.086.004m0 0" style="stroke:none;fill-rule:nonzero;fill:#4d4d4d;fill-opacity:1"/><path d="M13.57 5.078c.48 0 .727.406.739 1.203.011.75-.375 1.63-1.493 1.828q-.029.005-.05.004c-.375 0-.746-.836-.754-1.691-.008-.473.113-.988.394-.996a.35.35 0 0 0 .164-.04c.399-.202.735-.308 1-.308m0-.375c-.308 0-.695.106-1.172.352-1.253.023-.847 3.433.368 3.433.035 0 .078-.004.117-.008 1.191-.214 1.816-1.144 1.8-2.207-.011-.82-.285-1.57-1.113-1.57m0 0" style="stroke:none;fill-rule:nonzero;fill:#333;fill-opacity:1"/><path d="M7.836 15.281c-2.695 0-5.848-1.457-5.848-5.566 0-.902.285-1.637.559-2.344.25-.637.48-1.234.473-1.887a4.62 4.62 0 0 1 1.34-3.336C5.292 1.2 6.612.656 7.976.656c1.351 0 2.628.465 3.585 1.313 1.008.89 1.563 2.14 1.563 3.52 0 .636.184 1.226.379 1.85.223.716.457 1.458.457 2.38 0 3.82-3.176 5.562-6.125 5.562m0 0" style="stroke:none;fill-rule:nonzero;fill:url(#a)"/><path d="M7.977.844c1.308 0 2.539.449 3.46 1.265.684.606 1.5 1.684 1.5 3.38 0 .663.188 1.269.391 1.906.219.699.445 1.425.445 2.32 0 1.707-.652 3.12-1.882 4.082-1.059.82-2.536 1.293-4.051 1.293-1.547 0-2.945-.457-3.938-1.285-1.129-.942-1.722-2.356-1.722-4.09 0-.867.277-1.586.547-2.277.253-.653.492-1.27.48-1.958a4.44 4.44 0 0 1 1.29-3.203C5.39 1.367 6.66.844 7.976.844m0-.375c-2.805 0-5.188 2.164-5.145 5.02.02 1.312-1.031 2.464-1.031 4.226 0 4.004 2.941 5.754 6.035 5.754 3 0 6.312-1.75 6.312-5.754 0-1.77-.835-2.91-.835-4.227 0-3.062-2.555-5.02-5.336-5.02m0 0" style="stroke:none;fill-rule:nonzero;fill:#1a1a1a;fill-opacity:1"/><path d="M12.48 7.586c0-.969-.683-1.785-1.593-2.059a2.32 2.32 0 0 0-1.403.016c-.515.172-.941.789-1.52.789-.816 0-1.413-.91-2.241-.91-1.246 0-2.25.969-2.25 2.164 0 1.101.855 2.008 1.957 2.144-.727.75-.961 1.782-.961 2.5 0 1.254 1.386 2.672 3.578 2.672 2.195 0 3.418-1.422 3.418-2.672 0-.722-.164-1.757-.875-2.507 1.07-.168 1.89-1.059 1.89-2.137m0 0" style="stroke:none;fill-rule:nonzero;fill:url(#b)"/><path d="m11.32 13.43-.043-.086c-.03-.051-.07-.145-.125-.23-.03-.044-.058-.094-.093-.15-.04-.05-.082-.109-.125-.167q-.078-.087-.16-.18-.093-.088-.196-.183c-.074-.055-.144-.121-.23-.172q-.064-.04-.13-.086l-.14-.074c-.09-.055-.195-.094-.297-.141-.11-.035-.21-.082-.328-.113a4 4 0 0 0-.715-.153 6 6 0 0 0-.758-.047c-.128.004-.27 0-.39.012l-.188.012-.187.023c-.25.035-.492.078-.715.153-.117.03-.223.078-.328.113-.102.047-.207.086-.3.14q-.073.037-.138.075a3 3 0 0 1-.129.086c-.085.05-.156.117-.23.172q-.104.095-.195.183-.084.093-.16.18l-.125.168c-.04.055-.067.11-.098.152-.059.094-.09.176-.121.227l-.04.078-.007.015a.173.173 0 0 1-.23.075.17.17 0 0 1-.079-.219q-.001 0 .04-.09c.027-.062.058-.156.12-.262l.098-.18q.066-.093.137-.198c.05-.07.113-.141.176-.215a6 6 0 0 1 .214-.22c.086-.066.165-.144.262-.206q.07-.048.145-.102.075-.041.152-.09c.106-.066.223-.113.336-.171.117-.043.238-.098.363-.133a4.7 4.7 0 0 1 .785-.176q.104-.011.207-.027l.207-.016c.145-.012.27-.008.407-.016.285.008.554.016.828.059.27.04.535.094.785.176.125.035.246.09.363.133.114.058.23.105.336.171.051.032.106.063.153.09q.074.053.144.102c.098.062.18.14.262.207q.116.112.215.219.093.11.175.214.073.105.133.2c.043.066.075.129.106.183.066.114.086.196.117.254l.035.09a.17.17 0 0 1-.09.223.16.16 0 0 1-.21-.082M6.406 7.434c0-.403-.285-.727-.64-.727s-.645.324-.645.727.29.726.645.726.64-.324.64-.726M10.828 7.348c0-.403-.289-.727-.644-.727-.352 0-.641.324-.641.727s.289.73.64.73c.356 0 .645-.328.645-.73m0 0" style="stroke:none;fill-rule:nonzero;fill:#000;fill-opacity:1"/><path d="m9.5 10.117.074-.05c.04-.028.102-.075.172-.141.07-.067.152-.149.207-.25a.54.54 0 0 0 .063-.352c-.004-.031-.016-.07-.024-.097-.008-.024-.015-.051-.023-.067a.512.512 0 0 0-.156-.203.51.51 0 0 0-.442-.082.6.6 0 0 0-.129.04q-.083.033-.164.065l-.086.036-.031.011-.043.02q-.082.04-.168.074l-.164.074-.168.078-.164.079-.086.039-.04.02-.026.015c-.024.008-.07.027-.13.027a.4.4 0 0 1-.132-.031l-.016-.012-.043-.02-.082-.038-.172-.082-.332-.153c-.207-.086-.465-.207-.62-.246a.52.52 0 0 0-.438.082.6.6 0 0 0-.207.375.52.52 0 0 0 .066.344c.055.105.137.187.203.254.07.062.133.11.18.14q.065.047.066.047l.008.004a.19.19 0 0 1 .047.262.18.18 0 0 1-.246.055l-.082-.047c-.055-.035-.137-.082-.23-.16a1.5 1.5 0 0 1-.31-.336.94.94 0 0 1-.14-.637c.028-.215.13-.473.352-.66a.9.9 0 0 1 .39-.192c.149-.035.293-.03.446 0 .039.008.082.02.105.024l.043.015.024.008.007.004.024.008q.088.033.172.066.169.07.343.145.17.072.34.148l.168.078.13.059.027.012a.2.2 0 0 0-.09-.02c-.043 0-.075.016-.082.016-.008.004 0 .004.015-.008l.047-.02.082-.039.344-.156q.083-.034.172-.074.086-.035.168-.07l.043-.02.047-.02.086-.03q.081-.034.164-.067.1-.037.207-.063c.285-.062.617.004.832.196.109.09.195.203.25.32a1 1 0 0 0 .043.094c.007.031.015.047.023.074a.958.958 0 0 1-.105.809 1.5 1.5 0 0 1-.309.336 1.6 1.6 0 0 1-.23.16l-.079.047a.186.186 0 0 1-.254-.07.19.19 0 0 1 .063-.247m0 0" style="stroke:none;fill-rule:nonzero;fill:#666;fill-opacity:1"/><path d="m7.2 10.125-.63-.363a.28.28 0 0 1-.105-.38l.008-.015a.28.28 0 0 1 .382-.101l.63.363a.28.28 0 0 1 .1.383l-.007.011a.275.275 0 0 1-.379.102M8.75 10.125l.633-.363a.28.28 0 0 0 .101-.38l-.007-.015a.28.28 0 0 0-.383-.101l-.63.363a.28.28 0 0 0-.1.383l.007.011c.074.133.246.18.379.102m0 0" style="stroke:none;fill-rule:nonzero;fill:#000;fill-opacity:1"/></svg>
